svg/u1f489.svg

<svg viewBox="0 0 128 128" xmlns="http://www.w3.org/2000/svg">
  <g>
    <g>
      <path d="M106.88,22.97L103.91,20l13.94-13.94c0.69-0.69,1.27-0.93,1.84-0.94l3.96,0.2 c0.32,0.02,0.47,0.42,0.24,0.65L106.88,22.97z" fill="#848484"/>
      <ellipse cx="18.69" cy="108.19" rx="3.14" ry="17.17" fill="#B9E4EA" transform="matrix(0.7071 -0.7071 0.7071 0.7071 -71.0311 44.9034)"/>
      <path d="M16.58,110.3c-5.18-5.18-10.86-12.76-10.03-14.25c0,0-1.74,1.74-2.02,2.02 c-2.14,2.14,2.47,8.4,9.17,15.1s12.96,11.31,15.1,9.17c0.24-0.24,2.02-2.02,2.02-2.02C29.77,121.39,21.76,115.48,16.58,110.3z" fill="#82AEC0"/>
      <path d="M26.99,114.45c0,0-2.32-0.43-8.22-6.34c-5.9-5.9-6.34-8.22-6.34-8.22l22.62-22.62l14.56,14.56 L26.99,114.45z" fill="#B9E4EA"/>
      <path d="M62.58,88.59l43.35-43.35c0.52-0.52,0.52-1.37,0-1.89L83.52,20.96c-0.52-0.52-1.37-0.52-1.89,0 L38.32,64.27c0,0-2.48,0.86-6.02-1.28c-2.02-1.23-3.64-2.08-5.43-0.29c0,0-0.76,2.99,16.65,20.4s20.8,16.7,20.8,16.7 c1.02-1.02,0.57-2.73-0.63-5.4C62.23,91.18,62.58,88.59,62.58,88.59z" fill="#B9E4EA"/>
      <path d="M106.51,20.37L106.51,20.37c-1.56-1.56-4.08-1.56-5.63,0l-9.06,9.06l5.63,5.63l9.06-9.06 C108.07,24.45,108.07,21.92,106.51,20.37z" fill="#00937A"/>
      <path d="M94.06,30.74l-1.4-1.4l7.3-7.3c0.39-0.39,1.02-0.39,1.4,0l0,0c0.39,0.39,0.39,1.02,0,1.4 L94.06,30.74z" fill="#12D8B7"/>
      <path d="M55.9,85.54c0,0-2.32-0.43-8.22-6.34s-6.34-8.22-6.34-8.22l17.52-17.52l14.56,14.56L55.9,85.54z" fill="#82AEC0"/>
      <path d="M63.49,100.67c0.33-0.39,0.65-0.78,1.02-1.13c-0.25,0.06-0.52,0.03-0.76-0.06 c-0.25-0.09-0.46-0.23-0.66-0.4c-1.43-1.19-2.86-2.38-4.27-3.59c-2.2-1.89-4.37-3.81-6.51-5.77c-2.66-2.43-5.27-4.92-7.82-7.47 c-2.54-2.54-5.02-5.14-7.45-7.78c-1.94-2.11-3.85-4.26-5.72-6.43c-0.68-0.79-1.36-1.59-2.03-2.39c-0.6-0.72-1.44-1.48-1.73-2.37 c-0.11-0.35-0.15-0.72-0.05-1.07c-1.16,0.79-2.07,1.93-3.07,2.92c-0.32,0.32-0.36,0.82-0.08,1.19c1.46,1.94,6.5,8.3,17.32,19.12 c10.8,10.8,17.02,15.7,18.92,17.13c0.36,0.27,0.86,0.23,1.18-0.08c0.36-0.36,0.72-0.72,1.08-1.08 C63.08,101.15,63.29,100.91,63.49,100.67z" fill="#82AEC0"/>
    </g>
    <path d="M83.52,25.81c1.84,1.84-0.69,4.01-0.69,4.01S48.89,63.5,45.22,67.14c-1.14,1.14-2.36,2.69-4.02,2.92 c-2.5,0.25-4.94-1.29-6.39-3.25c-0.19-0.26-0.21-0.64,0.18-0.57c3.66,0.78,4.85-0.16,7.23-2.79c1.93-1.91,34.73-34.5,37.37-37.12 C80.62,25.31,82.03,24.31,83.52,25.81z" fill="#FFFFFF"/>
    <polygon points="81.45,66.77 60.17,45.63 54.64,51.14 75.85,72.37 " fill="#455A64"/>
    <path d="M59.83,52.65l1.85-1.87c1.02-1.02,2.67-1.02,3.69,0l12.62,12.54c1.03,1.03,1.01,2.71-0.02,3.74 l-1.85,1.85c-1.03,1.03-2.7,1.03-3.72,0L59.82,56.34C58.81,55.32,58.81,53.67,59.83,52.65z" fill="#212121"/>
  </g>
</svg>

<svg viewBox="0 0 128 128" xmlns="http://www.w3.org/2000/svg">
  <defs/>
  <path d="M106.88,22.97 L103.91,20 L117.85,6.06 C118.54,5.37 119.12,5.13 119.69,5.12 L123.65,5.32 C123.97,5.34 124.12,5.74 123.89,5.97 L106.88,22.97 Z" fill="#848484"/>
  <path d="M20.906,105.969 C27.611,112.674 32.053,119.104 30.827,120.33 C29.6,121.556 23.171,117.114 16.465,110.409 C9.76,103.704 5.319,97.274 6.545,96.048 C7.771,94.822 14.201,99.263 20.906,105.969 Z" fill="#B9E4EA"/>
  <path d="M16.58,110.3 C11.4,105.12 5.72,97.54 6.55,96.05 C6.55,96.05 4.81,97.79 4.53,98.07 C2.39,100.21 7,106.47 13.7,113.17 C20.4,119.87 26.66,124.48 28.8,122.34 C29.04,122.1 30.82,120.32 30.82,120.32 C29.77,121.39 21.76,115.48 16.58,110.3 Z" fill="#82AEC0"/>
  <path d="M26.99,114.45 C26.99,114.45 24.67,114.02 18.77,108.11 C12.87,102.21 12.43,99.89 12.43,99.89 L35.05,77.27 L49.61,91.83 L26.99,114.45 Z" fill="#B9E4EA"/>
  <path d="M62.58,88.59 L105.93,45.24 C106.45,44.72 106.45,43.87 105.93,43.35 L83.52,20.96 C83,20.44 82.15,20.44 81.63,20.96 L38.32,64.27 C38.32,64.27 35.84,65.13 32.3,62.99 C30.28,61.76 28.66,60.91 26.87,62.7 C26.87,62.7 26.11,65.69 43.52,83.1 C60.93,100.51 64.32,99.8 64.32,99.8 C65.34,98.78 64.89,97.07 63.69,94.4 C62.23,91.18 62.58,88.59 62.58,88.59 Z" fill="#B9E4EA"/>
  <path d="M106.51,20.37 L106.51,20.37 C104.95,18.81 102.43,18.81 100.88,20.37 L91.82,29.43 L97.45,35.06 L106.51,26 C108.07,24.45 108.07,21.92 106.51,20.37 Z" fill="#00937A"/>
  <path d="M94.06,30.74 L92.66,29.34 L99.96,22.04 C100.35,21.65 100.98,21.65 101.36,22.04 L101.36,22.04 C101.75,22.43 101.75,23.06 101.36,23.44 L94.06,30.74 Z" fill="#12D8B7"/>
  <path d="M55.9,85.54 C55.9,85.54 53.58,85.11 47.68,79.2 C41.78,73.29 41.34,70.98 41.34,70.98 L58.86,53.46 L73.42,68.02 L55.9,85.54 Z" fill="#82AEC0"/>
  <path d="M63.49,100.67 C63.82,100.28 64.14,99.89 64.51,99.54 C64.26,99.6 63.99,99.57 63.75,99.48 C63.5,99.39 63.29,99.25 63.09,99.08 C61.66,97.89 60.23,96.7 58.82,95.49 C56.62,93.6 54.45,91.68 52.31,89.72 C49.65,87.29 47.04,84.8 44.49,82.25 C41.95,79.71 39.47,77.11 37.04,74.47 C35.1,72.36 33.19,70.21 31.32,68.04 C30.64,67.25 29.96,66.45 29.29,65.65 C28.69,64.93 27.85,64.17 27.56,63.28 C27.45,62.93 27.41,62.56 27.51,62.21 C26.35,63 25.44,64.14 24.44,65.13 C24.12,65.45 24.08,65.95 24.36,66.32 C25.82,68.26 30.86,74.62 41.68,85.44 C52.48,96.24 58.7,101.14 60.6,102.57 C60.96,102.84 61.46,102.8 61.78,102.49 C62.14,102.13 62.5,101.77 62.86,101.41 C63.08,101.15 63.29,100.91 63.49,100.67 Z" fill="#82AEC0"/>
  <path d="M83.52,25.81 C85.36,27.65 82.83,29.82 82.83,29.82 C82.83,29.82 48.89,63.5 45.22,67.14 C44.08,68.28 42.86,69.83 41.2,70.06 C38.7,70.31 36.26,68.77 34.81,66.81 C34.62,66.55 34.6,66.17 34.99,66.24 C38.65,67.02 39.84,66.08 42.22,63.45 C44.15,61.54 76.95,28.95 79.59,26.33 C80.62,25.31 82.03,24.31 83.52,25.81 Z" fill="#FFFFFF"/>
  <path d="M81.45,66.77 L60.17,45.63 L54.64,51.14 L75.85,72.37 Z" fill="#455A64"/>
  <path d="M59.83,52.65 L61.68,50.78 C62.7,49.76 64.35,49.76 65.37,50.78 L77.99,63.32 C79.02,64.35 79,66.03 77.97,67.06 L76.12,68.91 C75.09,69.94 73.42,69.94 72.4,68.91 L59.82,56.34 C58.81,55.32 58.81,53.67 59.83,52.65 Z" fill="#212121"/>
</svg>
